X: 25900
T: Matthew's
R: polka
M: 2/4
K: Amajor
|:A|B (3B/c/B/ A F|A F E F|B (3B/c/B/ A F|B2 B A|
B(3B/c/B/ A F|A F E F|B (3B/c/B/ A G|A2 A:|
A/A/|c/A/A/A/ d/A/A/A/|c/A/B/A/ F A|B (3B/c/B/ A F|B2 B A/A/|
c/A/A/A/ d/A/A/A/|c/A/B/A/ F A|B (3B/c/B/ A G|A2 A A/A/|
c/A/A/d/ A/A/c/A/|A/A/B/A/ F A|B (3B/c/B/ A F|B2 B A/A/|
c/A/A/d/ A/A/c/A/|A/A/B/A/ F A|B (3B/c/B/ A G|A2 A||

